X:1
T:Title
%%score { ( 1 3 5 ) | ( 2 4 ) }
L:1/8
Q:1/4=112
M:4/4
K:A
V:1 treble nm="Grand Piano"
V:3 treble 
V:5 treble 
V:2 bass 
V:4 bass 
V:1
 E2 C>E A2 E2 | c6 B2 | A3 A [^DB]2 [DF]2 | G6 E2 | [EA]3 [DE] [CA]2 [Fc]2 | e6 z2 | c4 B4 | %7
w: Arthur~Berridge * * * *|||||||
 [CA]6 c2 | B4 A4 | G2 A2 B2 c2 | z2 z G z2 z B | G2 F2 E2 E2 | [CE]3 [CE] [B,C^E]2 [B,CE]2 | %13
w: ||||||
 [A,CF]2 [B,^EG]2 [A,FA]2 [CF^A]2 | [B,FB]3 [Fc] [Fd]2 .[B,EG]2 | [A,CA]8 | E2 C>E A2 E2 | c6 B2 | %18
w: |||||
 A3 A [^DB]2 [B,DF]2 | [B,EG]6 [G,E]2 | [A,EA]3 [G,E] [A,CA]2 [Fc]2 | e2- [Ae-]2 [Ge]2 [Fd]2 | %22
w: ||||
 c4 B4 |[M:3/4] [CA]6 |] %24
w: ||
V:2
 E,2 C,>E, A,2 E,2 | C6 [E,G,E]2 | [F,A,C]3 [F,A,C] [B,,A,]2 [B,,B,]2 | [E,B,E]6 [D,G,]2 | %4
 [C,A,]3 [C,G,] [A,,A,]2 [F,A,]2 | [C,A,]6 [D,A,]2 | E2 z2 E2 z2 | [A,,A,]6 [A,E]2 | %8
 [G,B,E]2 [C,C]2 [F,CE]2 [B,,B,]2 | [E,B,E]2 [F,B,^D]2 [G,B,E]2 [A,E]2 | %10
 [G,B,E]2 [C,C]2 [F,CE]2 [B,,B,]2 | [E,B,E]2 [F,B,^D]2 [G,B,]2 [E,G,=D]2 | %12
 [A,,A,]3 [A,,A,] G,,2 G,,2 | F,,2 C,2 F,2 E,2 | D,3 [C,^A,] [B,,B,]2 z D | A,,8 | %16
 E,2 C,>E, A,2 E,2 | C6 [E,G,E]2 | [F,A,C]3 [F,A,C] [B,,A,]2 B,,2 | E,6 D,2 | %20
 C,3 B,, A,,2 [F,A,]2 | [C,A,]6 [D,A,]2 | E2 z2 E2 z2 |[M:3/4] [A,,A,]6 |] %24
V:3
 x8 | x8 | x8 | x8 | x8 | E2 A2 G2 [Fd]2 | z2 C2 z2 D2 | x8 | z2 z G z2 z F | x8 | B4 A4 | x8 | %12
 x8 | x8 | x8 | x8 | x8 | x8 | x8 | x8 | x8 | E2 z2 z4 | z2 C2 z2 D2 |[M:3/4] x6 |] %24
V:4
 x8 | x8 | x8 | x8 | x8 | x8 | [E,B,]4 [E,,E,G,]4 | x8 | x8 | x8 | x8 | x8 | x8 | x8 | z4 z2 E,2 | %15
 x8 | x8 | x8 | x8 | x8 | x8 | x8 | [E,A,]4 [E,,E,G,]4 |[M:3/4] x6 |] %24
V:5
 x8 | x8 | x8 | x8 | x8 | x8 | x8 | x8 | z2 E2 z2 ^D2 | x8 | z2 E2 z2 ^D2 | x8 | x8 | x8 | x8 | %15
 x8 | x8 | x8 | x8 | x8 | x8 | x8 | x8 |[M:3/4] x6 |] %24

